X: 25372
T: Marble Hill
R: reel
M: 4/4
K: Dmajor
((3ABd)|d3 f e>dA>d|d>AB<G F2 E>D|G>FG<B A>FD<F|G<AF>G E>GF<E|
D2 d>f e>cA<c|d>AB/G F2 E<D|G2 B>G A>dc<A|B>GE<C D2:|
E|D2 a/f g2 ((3efg)|f<de>c d>AF<A|B<dG>B A2 d3 (F/G/A)|G>AF>G E>GF<E|1
D2 a2 f3 g2 ((3efg)|f<de>d d>AF<A|B/GF/G A>dd>A|B>GE<C D2 D2||2
D>df<a g>ec>e|f<de<c d2 c>A|B/GF/G A>dc>A|B>GE<C D2||

